portfolio-25/public/images/common/logo.svg

<svg baseProfile="full" version="1.1" height="710" width="550" xmlns="http://www.w3.org/2000/svg"><path d="M4 2 0 6v576l1 1v1l1 1h1l1 1h198l1 1v79l-1 1v10l-1 1v1l-1 1v1l-1 1v1l-1 1v1l-1 1v1l-5 5h-1l-5 5v7l2 2h1l1 1h110l4-4v-5l-1-1v-1l-3-3h-1l-6-6v-1l-2-2v-1l-1-1v-1l-1-1v-4l-1-1v-4l-1-1v-83l1-1h73l1-1h8l1-1h15l1-1h5l1-1h4l1-1h3l1-1h7l1-1h2l1-1h3l1-1h1l1-1h4l1-1h3l1-1h1l1-1h2l1-1h2l1-1h2l1-1h1l1-1h1l1-1h2l1-1h2l2-2h1l1-1h2l1-1h1l2-2h1l1-1h1l1-1h1l1-1h1l2-2h1l1-1h1l3-3h1l1-1h1l3-3h1l4-4h1l3-3h1l6-6h1v-1l2-2h1l2-2v-1l8-8v-1l4-4v-1l4-4v-2l1-1h1v-1l2-2v-1l1-1v-1l3-3v-2l2-2v-1l1-1v-1l1-1v-2l3-3v-2l1-1v-2l2-2v-1l1-1v-2l1-1v-2l1-1v-2l2-2v-3l1-1v-3l1-1v-2l1-1v-2l1-1v-3l1-1v-5l1-1v-4l1-1v-5l1-1v-7l1-1v-31l-1-1v-8l-1-1v-4l-1-1v-4l-1-1v-5l-1-1v-3l-1-1v-2l-1-1v-2l-1-1v-4l-1-1v-2l-1-1v-1l-1-1v-1l-1-1v-2l-1-1v-2l-1-1v-1l-2-2v-3l-1-1v-1l-2-2v-1l-1-1v-1l-1-1v-1l-1-1v-1l-2-2v-1l-1-1v-1l-2-2v-1l-1-1v-1l-4-4v-1l-1-1v-1l-4-4v-1l-7-7v-1l-10-10h-1l-5-5h-1l-4-4h-1l-3-3h-1l-2-2h-1l-2-2h-1l-1-1h-1l-3-3h-1l-1-1h-1l-1-1h-1l-1-1h-1l-2-2h-2l-1-1h-1l-1-1h-1l-2-2h-3l-1-1 4-4h1l14-14v-1l3-3v-1l3-3v-1l1-1v-1l1-1v-1l2-2v-1l1-1v-3l1-1v-1l2-2v-2l1-1v-4l1-1v-2l1-1v-4l1-1v-6l1-1v-14l-1-1v-8l-1-1v-4l-1-1v-2l-1-1v-5l-1-1v-2l-1-1v-1l-1-1v-2l-1-1v-3l-1-1v-2l-2-2v-1l-1-1v-2l-1-1v-2l-2-2v-1l-1-1v-1l-1-1v-1l-1-1v-1l-2-2v-1l-1-1v-1l-1-1v-1l-2-2v-1l-3-3v-1l-2-2v-1l-3-3v-1l-4-4v-1l-4-4v-1l-1-1h-1l-2-2v-1l-5-5h-1l-2-2v-1l-1-1h-1l-4-4h-1l-1-1v-1l-2-2h-1l-4-4h-1l-3-3h-1l-1-1h-1l-4-4h-1l-2-2h-1l-2-2h-2l-3-3h-1l-1-1h-1l-1-1h-1l-2-2h-1l-1-1h-1l-2-2h-1l-1-1h-1l-1-1h-2l-2-2h-1l-1-1h-1l-1-1h-2l-1-1h-1l-1-1h-1l-1-1h-1l-1-1h-2l-1-1h-1l-1-1h-1l-1-1h-2l-1-1h-3l-1-1h-1l-1-1h-1l-1-1h-1l-1-1h-4l-1-1h-1l-1-1h-2l-1-1h-2l-1-1h-4l-1-1h-2l-1-1h-1l-1-1h-3l-1-1h-5l-1-1h-3l-1-1h-2l-1-1h-4l-1-1h-7l-1-1h-4l-1-1h-4l-1-1h-6l-1-1h-12l-1-1h-7l-1-1h-16l-1-1zm101 53 1-1h122l1 1h11l1 1h12l1 1h4l1 1h3l1 1h4l1 1h6l1 1h3l1 1h1l1 1h2l1 1h5l1 1h1l1 1h2l1 1h1l1 1h3l1 1h1l1 1h1l1 1h1l1 1h3l1 1h1l2 2h1l1 1h2l1 1h1l2 2h1l1 1h1l1 1h1l2 2h1l1 1h1l3 3h1l1 1h1l3 3h1l1 1h1l4 4h1l1 1v1l1 1h1l15 15v1l1 1h1l1 1v1l1 1v1h1l1 1v1l1 1v1l4 4v1l1 1v1l3 3v2l1 1v1l3 3v2l1 1v1l1 1v1l1 1v1l1 1v3l1 1v1l1 1v1l1 1v2l1 1v4l1 1v3l1 1v2l1 1v4l1 1v19l-1 1v3l-1 1v3l-1 1v3l-1 1v3l-1 1v1l-1 1v1l-1 1v1l-1 1v2l-2 2v1l-2 2v1l-7 7h-1l-2 2H203l-3 3v2l-1 1v253l1 1v2l3 3h3l1 1h48l1-1h5l1 1h13l1-1h8l3-3V293l1-1v-2l2-2h1l1-1h61l1 1h16l1 1h4l1 1h3l1 1h4l1 1h5l1 1h2l1 1h1l1 1h2l1 1h3l1 1h2l2 2h2l1 1h2l3 3h1l1 1h1l1 1h1l3 3h2l1 1v1l1 1h1l11 11v1l1 1h1l1 1v2l4 4v1l1 1v1l3 3v2l1 1v1l1 1v1l2 2v2l1 1v2l2 2v1l1 1v4l1 1v2l1 1v1l1 1v2l1 1v6l1 1v4l1 1v4l1 1v7l1 1v23l-1 1v6l-1 1v5l-1 1v3l-1 1v7l-2 2v3l-1 1v1l-1 1v4l-1 1v1l-1 1v1l-1 1v1l-1 1v2l-1 1v1l-2 2v1l-1 1v1l-1 1v1l-2 2v1l-1 1v1l-3 3v1l-2 2v1l-4 4v1l-10 10h-1l-4 4h-1l-4 4h-2l-3 3h-1l-1 1h-1l-1 1h-1l-3 3h-2l-1 1h-2l-2 2h-1l-1 1h-2l-1 1h-1l-1 1h-2l-1 1h-1l-1 1h-3l-1 1h-2l-1 1h-1l-1 1h-2l-1 1h-5l-1 1h-4l-1 1h-3l-1 1h-3l-1 1h-9l-1 1h-8l-1 1h-12l-1 1H104l-1-1h-2l-2-2h-1l-1-1v-2l-1-1V61l1-1v-1l3-3h1l1-1z" fill="#ffffff" fill-rule="evenodd"/></svg>

<?xml version="1.0" encoding="utf-8" ?>
<svg baseProfile="full" height="710" version="1.1" width="550" xmlns="http://www.w3.org/2000/svg" xmlns:ev="http://www.w3.org/2001/xml-events" xmlns:xlink="http://www.w3.org/1999/xlink"><defs /><path d="M 4,2 L 0,6 L 0,582 L 1,583 L 1,584 L 2,585 L 3,585 L 4,586 L 202,586 L 203,587 L 203,666 L 202,667 L 202,677 L 201,678 L 201,679 L 200,680 L 200,681 L 199,682 L 199,683 L 198,684 L 198,685 L 197,686 L 197,687 L 192,692 L 191,692 L 186,697 L 186,704 L 188,706 L 189,706 L 190,707 L 300,707 L 304,703 L 304,698 L 303,697 L 303,696 L 300,693 L 299,693 L 293,687 L 293,686 L 291,684 L 291,683 L 290,682 L 290,681 L 289,680 L 289,676 L 288,675 L 288,671 L 287,670 L 287,587 L 288,586 L 361,586 L 362,585 L 370,585 L 371,584 L 386,584 L 387,583 L 392,583 L 393,582 L 397,582 L 398,581 L 401,581 L 402,580 L 409,580 L 410,579 L 412,579 L 413,578 L 416,578 L 417,577 L 418,577 L 419,576 L 423,576 L 424,575 L 427,575 L 428,574 L 429,574 L 430,573 L 432,573 L 433,572 L 435,572 L 436,571 L 438,571 L 439,570 L 440,570 L 441,569 L 442,569 L 443,568 L 445,568 L 446,567 L 448,567 L 450,565 L 451,565 L 452,564 L 454,564 L 455,563 L 456,563 L 458,561 L 459,561 L 460,560 L 461,560 L 462,559 L 463,559 L 464,558 L 465,558 L 467,556 L 468,556 L 469,555 L 470,555 L 473,552 L 474,552 L 475,551 L 476,551 L 479,548 L 480,548 L 484,544 L 485,544 L 488,541 L 489,541 L 495,535 L 496,535 L 496,534 L 498,532 L 499,532 L 501,530 L 501,529 L 509,521 L 509,520 L 513,516 L 513,515 L 517,511 L 517,509 L 518,508 L 519,508 L 519,507 L 521,505 L 521,504 L 522,503 L 522,502 L 525,499 L 525,497 L 527,495 L 527,494 L 528,493 L 528,492 L 529,491 L 529,489 L 532,486 L 532,484 L 533,483 L 533,481 L 535,479 L 535,478 L 536,477 L 536,475 L 537,474 L 537,472 L 538,471 L 538,469 L 540,467 L 540,464 L 541,463 L 541,460 L 542,459 L 542,457 L 543,456 L 543,454 L 544,453 L 544,450 L 545,449 L 545,444 L 546,443 L 546,439 L 547,438 L 547,433 L 548,432 L 548,425 L 549,424 L 549,393 L 548,392 L 548,384 L 547,383 L 547,379 L 546,378 L 546,374 L 545,373 L 545,368 L 544,367 L 544,364 L 543,363 L 543,361 L 542,360 L 542,358 L 541,357 L 541,353 L 540,352 L 540,350 L 539,349 L 539,348 L 538,347 L 538,346 L 537,345 L 537,343 L 536,342 L 536,340 L 535,339 L 535,338 L 533,336 L 533,333 L 532,332 L 532,331 L 530,329 L 530,328 L 529,327 L 529,326 L 528,325 L 528,324 L 527,323 L 527,322 L 525,320 L 525,319 L 524,318 L 524,317 L 522,315 L 522,314 L 521,313 L 521,312 L 517,308 L 517,307 L 516,306 L 516,305 L 512,301 L 512,300 L 505,293 L 505,292 L 495,282 L 494,282 L 489,277 L 488,277 L 484,273 L 483,273 L 480,270 L 479,270 L 477,268 L 476,268 L 474,266 L 473,266 L 472,265 L 471,265 L 468,262 L 467,262 L 466,261 L 465,261 L 464,260 L 463,260 L 462,259 L 461,259 L 459,257 L 457,257 L 456,256 L 455,256 L 454,255 L 453,255 L 451,253 L 448,253 L 447,252 L 451,248 L 452,248 L 466,234 L 466,233 L 469,230 L 469,229 L 472,226 L 472,225 L 473,224 L 473,223 L 474,222 L 474,221 L 476,219 L 476,218 L 477,217 L 477,214 L 478,213 L 478,212 L 480,210 L 480,208 L 481,207 L 481,203 L 482,202 L 482,200 L 483,199 L 483,195 L 484,194 L 484,188 L 485,187 L 485,173 L 484,172 L 484,164 L 483,163 L 483,159 L 482,158 L 482,156 L 481,155 L 481,150 L 480,149 L 480,147 L 479,146 L 479,145 L 478,144 L 478,142 L 477,141 L 477,138 L 476,137 L 476,135 L 474,133 L 474,132 L 473,131 L 473,129 L 472,128 L 472,126 L 470,124 L 470,123 L 469,122 L 469,121 L 468,120 L 468,119 L 467,118 L 467,117 L 465,115 L 465,114 L 464,113 L 464,112 L 463,111 L 463,110 L 461,108 L 461,107 L 458,104 L 458,103 L 456,101 L 456,100 L 453,97 L 453,96 L 449,92 L 449,91 L 445,87 L 445,86 L 444,85 L 443,85 L 441,83 L 441,82 L 436,77 L 435,77 L 433,75 L 433,74 L 432,73 L 431,73 L 427,69 L 426,69 L 425,68 L 425,67 L 423,65 L 422,65 L 418,61 L 417,61 L 414,58 L 413,58 L 412,57 L 411,57 L 407,53 L 406,53 L 404,51 L 403,51 L 401,49 L 399,49 L 396,46 L 395,46 L 394,45 L 393,45 L 392,44 L 391,44 L 389,42 L 388,42 L 387,41 L 386,41 L 384,39 L 383,39 L 382,38 L 381,38 L 380,37 L 378,37 L 376,35 L 375,35 L 374,34 L 373,34 L 372,33 L 370,33 L 369,32 L 368,32 L 367,31 L 366,31 L 365,30 L 364,30 L 363,29 L 361,29 L 360,28 L 359,28 L 358,27 L 357,27 L 356,26 L 354,26 L 353,25 L 350,25 L 349,24 L 348,24 L 347,23 L 346,23 L 345,22 L 344,22 L 343,21 L 339,21 L 338,20 L 337,20 L 336,19 L 334,19 L 333,18 L 331,18 L 330,17 L 326,17 L 325,16 L 323,16 L 322,15 L 321,15 L 320,14 L 317,14 L 316,13 L 311,13 L 310,12 L 307,12 L 306,11 L 304,11 L 303,10 L 299,10 L 298,9 L 291,9 L 290,8 L 286,8 L 285,7 L 281,7 L 280,6 L 274,6 L 273,5 L 261,5 L 260,4 L 253,4 L 252,3 L 236,3 L 235,2 Z M 105,55 L 106,54 L 228,54 L 229,55 L 240,55 L 241,56 L 253,56 L 254,57 L 258,57 L 259,58 L 262,58 L 263,59 L 267,59 L 268,60 L 274,60 L 275,61 L 278,61 L 279,62 L 280,62 L 281,63 L 283,63 L 284,64 L 289,64 L 290,65 L 291,65 L 292,66 L 294,66 L 295,67 L 296,67 L 297,68 L 300,68 L 301,69 L 302,69 L 303,70 L 304,70 L 305,71 L 306,71 L 307,72 L 310,72 L 311,73 L 312,73 L 314,75 L 315,75 L 316,76 L 318,76 L 319,77 L 320,77 L 322,79 L 323,79 L 324,80 L 325,80 L 326,81 L 327,81 L 329,83 L 330,83 L 331,84 L 332,84 L 335,87 L 336,87 L 337,88 L 338,88 L 341,91 L 342,91 L 343,92 L 344,92 L 348,96 L 349,96 L 350,97 L 350,98 L 351,99 L 352,99 L 367,114 L 367,115 L 368,116 L 369,116 L 370,117 L 370,118 L 371,119 L 371,120 L 372,120 L 373,121 L 373,122 L 374,123 L 374,124 L 378,128 L 378,129 L 379,130 L 379,131 L 382,134 L 382,136 L 383,137 L 383,138 L 386,141 L 386,143 L 387,144 L 387,145 L 388,146 L 388,147 L 389,148 L 389,149 L 390,150 L 390,153 L 391,154 L 391,155 L 392,156 L 392,157 L 393,158 L 393,160 L 394,161 L 394,165 L 395,166 L 395,169 L 396,170 L 396,172 L 397,173 L 397,177 L 398,178 L 398,197 L 397,198 L 397,201 L 396,202 L 396,205 L 395,206 L 395,209 L 394,210 L 394,213 L 393,214 L 393,215 L 392,216 L 392,217 L 391,218 L 391,219 L 390,220 L 390,222 L 388,224 L 388,225 L 386,227 L 386,228 L 379,235 L 378,235 L 376,237 L 203,237 L 200,240 L 200,242 L 199,243 L 199,496 L 200,497 L 200,499 L 203,502 L 206,502 L 207,503 L 255,503 L 256,502 L 261,502 L 262,503 L 275,503 L 276,502 L 284,502 L 287,499 L 287,293 L 288,292 L 288,290 L 290,288 L 291,288 L 292,287 L 353,287 L 354,288 L 370,288 L 371,289 L 375,289 L 376,290 L 379,290 L 380,291 L 384,291 L 385,292 L 390,292 L 391,293 L 393,293 L 394,294 L 395,294 L 396,295 L 398,295 L 399,296 L 402,296 L 403,297 L 405,297 L 407,299 L 409,299 L 410,300 L 412,300 L 415,303 L 416,303 L 417,304 L 418,304 L 419,305 L 420,305 L 423,308 L 425,308 L 426,309 L 426,310 L 427,311 L 428,311 L 439,322 L 439,323 L 440,324 L 441,324 L 442,325 L 442,327 L 446,331 L 446,332 L 447,333 L 447,334 L 450,337 L 450,339 L 451,340 L 451,341 L 452,342 L 452,343 L 454,345 L 454,347 L 455,348 L 455,350 L 457,352 L 457,353 L 458,354 L 458,358 L 459,359 L 459,361 L 460,362 L 460,363 L 461,364 L 461,366 L 462,367 L 462,373 L 463,374 L 463,378 L 464,379 L 464,383 L 465,384 L 465,391 L 466,392 L 466,415 L 465,416 L 465,422 L 464,423 L 464,428 L 463,429 L 463,432 L 462,433 L 462,440 L 460,442 L 460,445 L 459,446 L 459,447 L 458,448 L 458,452 L 457,453 L 457,454 L 456,455 L 456,456 L 455,457 L 455,458 L 454,459 L 454,461 L 453,462 L 453,463 L 451,465 L 451,466 L 450,467 L 450,468 L 449,469 L 449,470 L 447,472 L 447,473 L 446,474 L 446,475 L 443,478 L 443,479 L 441,481 L 441,482 L 437,486 L 437,487 L 427,497 L 426,497 L 422,501 L 421,501 L 417,505 L 415,505 L 412,508 L 411,508 L 410,509 L 409,509 L 408,510 L 407,510 L 404,513 L 402,513 L 401,514 L 399,514 L 397,516 L 396,516 L 395,517 L 393,517 L 392,518 L 391,518 L 390,519 L 388,519 L 387,520 L 386,520 L 385,521 L 382,521 L 381,522 L 379,522 L 378,523 L 377,523 L 376,524 L 374,524 L 373,525 L 368,525 L 367,526 L 363,526 L 362,527 L 359,527 L 358,528 L 355,528 L 354,529 L 345,529 L 344,530 L 336,530 L 335,531 L 323,531 L 322,532 L 104,532 L 103,531 L 101,531 L 99,529 L 98,529 L 97,528 L 97,526 L 96,525 L 96,61 L 97,60 L 97,59 L 100,56 L 101,56 L 102,55 Z" fill="#463f33" fill-rule="evenodd" /></svg>
